client/public/assets/icon-instagram.svg

<svg xmlns="http://www.w3.org/2000/svg" xmlns:xlink="http://www.w3.org/1999/xlink" viewBox="0,0,256,256" width="30px" height="30px"><g transform="translate(-35.84,-35.84) scale(1.28,1.28)"><g fill="#ffffff" fill-rule="nonzero" stroke="none" stroke-width="1" stroke-linecap="butt" stroke-linejoin="miter" stroke-miterlimit="10" stroke-dasharray="" stroke-dashoffset="0" font-family="none" font-weight="none" font-size="none" text-anchor="none" style="mix-blend-mode: normal"><path d="M28,228v-200h200v200z" id="bgRectangle"></path></g><g fill="#000000" fill-rule="nonzero" stroke="none" stroke-width="1" stroke-linecap="butt" stroke-linejoin="miter" stroke-miterlimit="10" stroke-dasharray="" stroke-dashoffset="0" font-family="none" font-weight="none" font-size="none" text-anchor="none" style="mix-blend-mode: normal"><g transform="scale(16,16)"><path d="M5,1c-2.209,0 -4,1.791 -4,4v6c0,2.209 1.791,4 4,4h6c2.209,0 4,-1.791 4,-4v-6c0,-2.209 -1.791,-4 -4,-4zM5,2h6c1.657,0 3,1.343 3,3v6c0,1.657 -1.343,3 -3,3h-6c-1.657,0 -3,-1.343 -3,-3v-6c0,-1.657 1.343,-3 3,-3zM5,3c-1.105,0 -2,0.895 -2,2v6c0,1.105 0.895,2 2,2h6c1.105,0 2,-0.895 2,-2v-6c0,-1.105 -0.895,-2 -2,-2zM11.5,4c0.276,0 0.5,0.224 0.5,0.5c0,0.276 -0.224,0.5 -0.5,0.5c-0.276,0 -0.5,-0.224 -0.5,-0.5c0,-0.276 0.224,-0.5 0.5,-0.5zM8,5c1.657,0 3,1.343 3,3c0,1.657 -1.343,3 -3,3c-1.657,0 -3,-1.343 -3,-3c0,-1.657 1.343,-3 3,-3zM8,6c-1.10457,0 -2,0.89543 -2,2c0,1.10457 0.89543,2 2,2c1.10457,0 2,-0.89543 2,-2c0,-1.10457 -0.89543,-2 -2,-2z"></path></g></g></g></svg>

<svg fill="#1A1A1A" xmlns="http://www.w3.org/2000/svg"  viewBox="0 0 16 16" width="40px" height="40px"><path d="M 5 1 C 2.791 1 1 2.791 1 5 L 1 11 C 1 13.209 2.791 15 5 15 L 11 15 C 13.209 15 15 13.209 15 11 L 15 5 C 15 2.791 13.209 1 11 1 L 5 1 z M 5 2 L 11 2 C 12.657 2 14 3.343 14 5 L 14 11 C 14 12.657 12.657 14 11 14 L 5 14 C 3.343 14 2 12.657 2 11 L 2 5 C 2 3.343 3.343 2 5 2 z M 5 3 C 3.895 3 3 3.895 3 5 L 3 11 C 3 12.105 3.895 13 5 13 L 11 13 C 12.105 13 13 12.105 13 11 L 13 5 C 13 3.895 12.105 3 11 3 L 5 3 z M 11.5 4 C 11.776 4 12 4.224 12 4.5 C 12 4.776 11.776 5 11.5 5 C 11.224 5 11 4.776 11 4.5 C 11 4.224 11.224 4 11.5 4 z M 8 5 C 9.657 5 11 6.343 11 8 C 11 9.657 9.657 11 8 11 C 6.343 11 5 9.657 5 8 C 5 6.343 6.343 5 8 5 z M 8 6 A 2 2 0 0 0 8 10 A 2 2 0 0 0 8 6 z"/></svg>
